material/.icons/material/file-excel-box-outline.svg

<svg xmlns="http://www.w3.org/2000/svg" viewBox="0 0 24 24"><path d="M5 3c-1.11 0-2 .89-2 2v14c0 1.11.89 2 2 2h14c1.11 0 2-.89 2-2V5c0-1.11-.89-2-2-2H5m0 2h14v14H5V5m8 7l3.2 5h-2L12 13.2 9.8 17h-2l3.2-5-3.2-5h2l2.2 3.8L14.2 7h2L13 12z"/></svg>

<?xml version="1.0" encoding="UTF-8"?><!DOCTYPE svg PUBLIC "-//W3C//DTD SVG 1.1//EN" "http://www.w3.org/Graphics/SVG/1.1/DTD/svg11.dtd"><svg xmlns="http://www.w3.org/2000/svg" xmlns:xlink="http://www.w3.org/1999/xlink" version="1.1" id="mdi-file-excel-box-outline" width="24" height="24" viewBox="0 0 24 24"><path d="M5 3C3.89 3 3 3.89 3 5V19C3 20.11 3.89 21 5 21H19C20.11 21 21 20.11 21 19V5C21 3.89 20.11 3 19 3H5M5 5H19V19H5V5M13 12L16.2 17H14.2L12 13.2L9.8 17H7.8L11 12L7.8 7H9.8L12 10.8L14.2 7H16.2L13 12Z" /></svg>
